public/svgs/linkedin.svg

<svg width="1em" height="1em" viewBox="0 0 24 24" fill="none" xmlns="http://www.w3.org/2000/svg">
    <g id="linkedin 1">
        <path id="Vector"
            d="M7.00214 4.92592C7.00214 5.46769 6.80574 5.92818 6.41297 6.30741C6.0202 6.68665 5.5123 6.87626 4.88927 6.87626C4.29334 6.87626 3.80575 6.68665 3.42651 6.30741C3.04728 5.92818 2.85767 5.46769 2.85767 4.92592C2.85767 4.35708 3.04728 3.88981 3.42651 3.52412C3.80575 3.15843 4.30687 2.97559 4.9299 2.97559C5.55293 2.97559 6.04728 3.15843 6.41297 3.52412C6.77866 3.88981 6.97505 4.35708 7.00214 4.92592ZM2.97956 20.9756V8.42028H6.88024V20.9756H2.97956ZM9.19627 12.4429C9.19627 11.2781 9.16919 9.93722 9.115 8.42028H12.4875L12.6906 10.1675H12.7719C13.5845 8.81305 14.8712 8.13586 16.6319 8.13586C17.9863 8.13586 19.0766 8.58957 19.9028 9.49703C20.729 10.4045 21.1421 11.7521 21.1421 13.5399V20.9756H17.2414V14.0275C17.2414 12.2126 16.5777 11.3052 15.2504 11.3052C14.3024 11.3052 13.6387 11.7927 13.2595 12.7679C13.1782 12.9304 13.1376 13.2555 13.1376 13.7431V20.9756H9.19627V12.4429Z"
            fill="current" />
    </g>
</svg>

<svg xmlns="http://www.w3.org/2000/svg" width="1em" height="1em" fill="none" viewBox="0 0 24 24"><path fill="current" d="M7.002 4.926q0 .813-.589 1.381-.589.57-1.524.57-.894 0-1.462-.57a1.88 1.88 0 0 1-.57-1.381q0-.853.57-1.402.569-.549 1.503-.548.934 0 1.483.548.548.549.59 1.402M2.98 20.976V8.42h3.9v12.556zm6.216-8.533q0-1.748-.081-4.023h3.373l.203 1.748h.08q1.22-2.032 3.86-2.032 2.033 0 3.272 1.361 1.24 1.361 1.24 4.043v7.436H17.24v-6.948q0-2.723-1.99-2.723-1.423 0-1.992 1.463-.12.243-.121.975v7.233H9.196z"/></svg>
